X:639
L:1/8
M:2/4
K:Gmin
 D | G>A B d | B A/G/ A2 | B B/B/ c2 | d3 B/c/ | d>c d e/d/ | c>B c d/c/ | B>A B c/B/ | A>G A A | 
 G>A B d | B/A/ G2 :|

